public/svgs/engagement/discovery.svg

<svg width="1em" height="1em" viewBox="0 0 24 30" fill="current" xmlns="http://www.w3.org/2000/svg">
<path d="M2.29647 11.6615C3.1594 12.6742 4.01675 13.6903 4.87316 14.7071C5.03793 14.9023 5.24086 14.9639 5.45497 14.8059C6.04049 14.3733 6.61299 13.9277 7.18455 13.4812C7.37166 13.3346 7.2795 13.2357 7.08774 13.1563C6.74424 13.0145 6.40075 12.8711 6.06656 12.7139C4.86292 12.1476 3.88829 11.3852 3.27763 10.2922C2.59435 9.07121 2.28158 7.80321 2.33464 6.43476C2.39328 4.94719 2.8066 3.55524 3.55503 2.2362C3.98137 1.48432 4.49057 0.768087 4.96253 0.0356498C4.95694 0.0234965 4.95136 0.0113431 4.94484 0C4.44682 0.506386 3.93111 0.999809 3.45356 1.52078C1.4987 3.6557 0.605052 6.06367 1.05188 8.79816C1.22037 9.83038 1.56945 10.8083 2.29647 11.6615Z" fill="current"/>
<path d="M19.0273 14.7039C19.4974 14.1027 19.9973 13.5153 20.5381 12.9619C21.6943 11.7798 22.6652 10.5256 22.977 8.95375C23.2144 7.7603 23.2367 6.58386 22.9351 5.3896C22.5767 3.9701 21.8106 2.73938 20.7894 1.62289C20.2784 1.06384 19.677 0.56718 19.1166 0.0429688C19.0943 0.0632242 19.071 0.0834797 19.0487 0.103735C19.3866 0.52829 19.7403 0.943122 20.0596 1.37821C21.6961 3.60145 22.2267 6.00375 21.5006 8.57943C21.0985 10.007 20.2961 11.2442 18.8895 12.1112C18.1895 12.5422 17.4327 12.9028 16.6163 13.3411C17.2614 13.8248 17.9037 14.3158 18.56 14.7906C18.7201 14.9064 18.8606 14.9178 19.0273 14.7039Z" fill="current"/>
<path d="M5.43185 15.9081C5.56311 16.4169 5.65154 16.8731 5.80328 17.313C5.98946 17.8551 6.18308 18.3971 6.69041 18.8071C7.21822 19.234 7.72742 19.6797 8.22172 20.1366C9.10141 20.9509 10.1924 21.6104 10.7723 22.6791C10.7286 22.5252 10.7118 22.3607 10.6374 22.2189C10.1384 21.2726 9.67856 20.306 9.10513 19.3945C8.53171 18.483 8.43117 17.5496 8.74581 16.5903C8.97201 15.9016 9.33878 15.2486 9.6255 14.6182C9.11165 14.3954 8.50378 14.1596 7.93128 13.8712C7.67622 13.7432 7.60547 13.7732 7.43512 13.9692C6.81887 14.6766 6.56474 15.6642 5.43185 15.9081Z" fill="current"/>
<path d="M14.2231 21.4612C15.1754 20.5829 16.1956 19.7606 17.1479 18.8831C17.5082 18.5517 17.8451 18.1604 18.0378 17.7423C18.3041 17.1622 18.4232 16.531 18.6075 15.9153C17.2922 15.6025 17.1507 14.3605 16.3734 13.7236C15.6008 14.0615 14.8924 14.371 14.2119 14.6683C15.4928 16.2847 15.8689 17.9813 14.7034 19.8043C14.2891 20.4517 13.8935 21.1088 13.5202 21.7748C13.3676 22.0462 13.295 22.3525 13.187 22.6425C13.2075 22.6449 13.227 22.6474 13.2475 22.6498C13.5686 22.2504 13.8423 21.812 14.2231 21.4612Z" fill="current"/>
<path d="M18.3376 19.5981C18.2483 19.3194 18.1319 19.0472 18.0025 18.7061C17.7828 18.9856 17.6227 19.1776 17.4756 19.3777C16.9869 20.0462 16.4135 20.6368 15.7051 21.1529C15.1847 21.5321 14.7202 22.0077 14.3637 22.5116C13.6851 23.4726 13.767 24.6044 13.6106 25.6756C13.5045 26.4031 13.417 27.1339 12.945 27.757C12.4442 28.419 12.3716 29.1384 12.3986 29.8741C13.0418 29.2997 13.6804 28.7438 14.2957 28.1702C14.4186 28.056 14.5191 27.8712 14.5191 27.7189C14.5182 27.168 14.4102 26.6138 14.4502 26.0669C14.5778 24.3217 15.5412 23.0099 17.269 22.1146C17.727 21.8772 18.1738 21.618 18.5983 21.3368C18.7007 21.2696 18.7547 21.0662 18.7258 20.9439C18.6215 20.4918 18.48 20.0445 18.3376 19.5981Z" fill="current"/>
<path d="M11.0739 27.6839C10.3795 26.7529 10.5117 25.6146 10.3562 24.5572C10.198 23.4804 9.89265 22.4863 8.93105 21.7134C8.25988 21.1746 7.60919 20.6131 6.99853 20.0232C6.62896 19.6659 6.35342 19.2357 6.03506 18.8379C5.98945 18.8533 5.94476 18.8679 5.89915 18.8833C5.73718 19.4982 5.67574 20.1529 5.38344 20.7168C5.11162 21.2426 5.42254 21.4039 5.79582 21.6202C6.02296 21.7522 6.24451 21.8948 6.48468 22.0067C7.76651 22.603 8.74301 23.4262 9.24755 24.6472C9.60408 25.51 9.8247 26.3778 9.60221 27.2893C9.47934 27.7957 9.5296 28.1846 10.0965 28.5103C10.5452 28.7679 10.8906 29.1633 11.2676 29.5101C11.4137 29.6446 11.5208 29.8115 11.6762 30.0003C11.7125 29.903 11.7414 29.8658 11.7367 29.8334C11.6204 29.0953 11.5831 28.3661 11.0739 27.6839Z" fill="current"/>
<path d="M4.09281 15.179C3.54824 14.6362 2.97296 14.1152 2.43584 13.5667C1.22196 12.3263 0.41302 10.9351 0.38137 9.26363C0.379508 9.17451 0.34972 9.08538 0.332033 8.99707C-0.109207 10.1881 -0.0831415 11.3767 0.248254 12.5515C0.709042 14.1833 1.58501 15.6182 3.02881 16.7711C3.32949 17.0109 3.61713 17.2994 3.79027 17.6162C4.2101 18.3826 4.42141 19.2034 4.36928 20.1295C4.43165 20.0412 4.46237 20.0055 4.48471 19.965C4.99577 19.013 5.00787 17.9978 4.91665 16.9866C4.858 16.3255 4.60945 15.6943 4.09281 15.179Z" fill="current"/>
<path d="M23.8217 9.08984C23.6933 9.53141 23.6095 9.97379 23.4857 10.4081C23.0165 12.0512 21.8641 13.3249 20.5385 14.5045C19.8711 15.0984 19.3163 15.7555 19.1506 16.6014C19.0966 16.876 19.0724 17.1548 19.037 17.4319C18.9272 18.281 19.1729 19.0742 19.5145 19.8568C19.6923 18.3984 20.3505 17.1936 21.569 16.1452C22.2625 15.5489 22.7252 14.7217 23.1813 13.9495C23.6784 13.1093 23.8478 12.1792 23.9698 11.2329C24.0647 10.4915 23.913 9.7996 23.8217 9.08984Z" fill="current"/>
</svg>

<svg xmlns="http://www.w3.org/2000/svg" width="1em" height="1em" fill="current" viewBox="0 0 24 30"><path d="M2.296 11.662q1.293 1.519 2.577 3.045c.165.195.368.257.582.099a81 81 0 0 0 1.73-1.325c.187-.146.095-.245-.097-.325a23 23 0 0 1-1.021-.442c-1.204-.566-2.179-1.329-2.79-2.422-.683-1.22-.995-2.489-.942-3.857.058-1.488.472-2.88 1.22-4.199.426-.752.936-1.468 1.408-2.2L4.945 0C4.447.506 3.93 1 3.454 1.52 1.499 3.657.605 6.065 1.052 8.799c.168 1.032.517 2.01 1.244 2.864M19.027 14.704c.47-.601.97-1.189 1.511-1.742 1.156-1.182 2.127-2.436 2.439-4.008.237-1.194.26-2.37-.042-3.564-.358-1.42-1.124-2.65-2.146-3.767-.51-.56-1.112-1.056-1.672-1.58l-.068.06c.338.425.691.84 1.01 1.275 1.637 2.223 2.168 4.626 1.442 7.201-.402 1.428-1.205 2.665-2.611 3.532-.7.431-1.457.792-2.274 1.23.645.484 1.288.975 1.944 1.45.16.115.3.127.467-.087M5.432 15.908c.131.509.22.965.371 1.405.186.542.38 1.084.887 1.494.528.427 1.037.873 1.532 1.33.88.814 1.97 1.473 2.55 2.542-.043-.154-.06-.318-.135-.46-.499-.946-.958-1.913-1.532-2.825-.573-.911-.674-1.844-.36-2.804.227-.688.594-1.341.88-1.972-.513-.223-1.121-.458-1.694-.747-.255-.128-.326-.098-.496.098-.616.708-.87 1.695-2.003 1.94M14.223 21.461c.952-.878 1.973-1.7 2.925-2.578.36-.331.697-.723.89-1.14.266-.58.385-1.212.57-1.828-1.316-.312-1.457-1.554-2.235-2.191l-2.161.944c1.28 1.617 1.657 3.313.491 5.136a39 39 0 0 0-1.183 1.97c-.152.272-.225.578-.333.868l.06.008c.322-.4.595-.838.976-1.189M18.338 19.598c-.09-.279-.206-.55-.335-.892-.22.28-.38.472-.527.672a8 8 0 0 1-1.77 1.775c-.521.38-.986.855-1.342 1.359-.679.96-.597 2.092-.753 3.164-.107.727-.194 1.458-.666 2.081-.5.662-.573 1.381-.546 2.117.643-.574 1.281-1.13 1.897-1.704.123-.114.223-.299.223-.451 0-.551-.109-1.105-.069-1.652.128-1.745 1.091-3.057 2.819-3.952.458-.238.905-.497 1.33-.778.102-.067.156-.27.127-.393-.104-.452-.246-.9-.388-1.346M11.074 27.684c-.694-.931-.562-2.07-.718-3.127-.158-1.077-.463-2.07-1.425-2.844A28 28 0 0 1 7 20.023c-.37-.357-.646-.787-.964-1.185l-.136.045c-.162.615-.223 1.27-.516 1.834-.271.526.04.687.413.903.227.132.449.275.689.387 1.282.596 2.258 1.42 2.763 2.64.356.863.577 1.73.354 2.642-.123.507-.072.896.495 1.221.448.258.794.653 1.17 1 .147.135.254.301.41.49.036-.097.064-.134.06-.167-.117-.738-.154-1.467-.663-2.15M4.093 15.179c-.545-.543-1.12-1.064-1.657-1.612C1.222 12.327.413 10.935.38 9.264.38 9.174.35 9.085.332 8.997c-.441 1.191-.415 2.38-.084 3.555.461 1.631 1.337 3.066 2.78 4.22.301.239.59.527.762.844.42.767.631 1.587.58 2.514.062-.089.092-.124.115-.165.51-.952.523-1.967.432-2.978-.059-.661-.308-1.293-.824-1.808M23.822 9.09c-.129.441-.212.884-.336 1.318-.47 1.643-1.622 2.917-2.948 4.097-.667.593-1.222 1.25-1.387 2.096-.054.275-.079.554-.114.83-.11.85.136 1.643.478 2.426.177-1.459.835-2.663 2.054-3.712.694-.596 1.156-1.423 1.612-2.195.497-.84.667-1.77.789-2.717.095-.742-.057-1.433-.148-2.143"/></svg>
